X:1
T:D minor Abraham Wood, 1789
T:Joseph Hart, 1759 (Hymn 56, Part 2)             87. 87. 87. 87. 
T:Gethsemane
T:Transcribed from Wood's Divine Songs, 1790.
%%score [ 1 2 3 ]
L:1/8
Q:1/4=100
M:2/4
K:F
V:1 treble nm="Treble" snm="Tr."
V:2 treble-8 nm="Tenor" snm="T."
V:3 bass nm="Bass" snm="B."
V:1
 d2 d2 | f2 f2 | e2 e2 | e2 c2 || e2 e2 | f2 f2 | fd ed | c4 || c2 c2 | B2 A2 | f2 ed | c2 c2 || %12
w: 1.~Great High|Priest, we|view thee|stoo- ping,|With our|names up-|on * thy *|breast;|In the|gar- den,|groa- ning *|droo- ping,|
 d2 d2 | B3 B | A2 A2 | A4 || z4 | f2 c2 | g2 e2 | f2 f2 | e2 e2 || d2 d2 | c2 c2 | f2 ed | e4 || %25
w: To the|ground with|hor- rors|pressed.||Wee- ping|an- gels|stood con-|foun- ded,|To be-|hold their|Ma- ker *|thus;|
 d2 f2 | e2 e2 | f2 d2 | c2 c2 || c2 A2 | G2 G2 | c2 c2 | c4 || c2 c2 | A2 A2 | A2 A2 | A4- | A4 |] %38
w: And can|we re-|main un-|woun- ded|When we|know twas|all for|us?|When we|know twas|all for|us?||
V:2
 A2 A2 | d2 d2 | G2 G2 | A2 A2 || c2 c2 | d2 d2 | df ed | e4 || f2 f2 | e2 c2 | d2 cB | A2 A2 || %12
w: 2.~On the|cross the|bo- dy|bro- ken|Can- cels|eve- ry|pe- * nal *|tie;|Temp- ted|souls, pro-|duce this *|to- ken|
 F2 F2 | G3 E | F2 E2 | D4 || z4 | AB/c/ AF | G2 G2 | F2 FD | E2 E2 || F2 F2 | G2 G2 | F2 G2 | %24
w: All de-|mands to|sa- tis-|fy.||All * * is *|fin- ished,|do not *|doubt it,|But be-|lieve your|dy- ing|
 A4 || A2 F2 | G2 G2 | A2 d2 | e2 e2 || c2 c2 | d2 d2 | e2 e2 | f4 || f2 g<e | f<d d2 | c<A d<c | %36
w: Lord;|Ne- ver|rea- son|more a-|bout it,|On- ly|take him|at his|word,|On- ly *|take * him|at * his *|
 d4- | d4 |] %38
w: word.||
V:3
 D,2 D,2 | D,2 D,2 | C,2 C,2 | A,,2 A,,2 || A,,2 A,,2 | D,2 D,2 | F,2 G,2 | A,4 || F,2 F,2 | %9
w: 3.~Lord, we|fain would|trust thee|sole- ly;|Twas for|us thy|blood was|spilled;|Prai- sed|
 G,2 A,2 | D,2 E,2 | A,,2 A,,2 || B,,2 B,,2 | G,,3 G,, | A,,2 A,,2 | D,4 || z4 | F,2 F,2 | %18
w: bride- groom,|take us|whol- ly,|Take, and|make us|what thou|wilt.||Thou hast|
 E,2 E,2 | D,2 D,2 | C,2 C,2 || D,2 D,2 | E,2 C,2 | D,2 E,2 | A,,4 || D,2 D,2 | E,2 E,2 | D,2 D,2 | %28
w: borne the|bit- ter|sen- tence|Passed on|man's de-|vo- ted|race;|True be-|lief, and|true re-|
 A,2 A,2 || A,2 A,2 | B,2 B,2 | C2 C,2 | F,4 || F,2 C,2 | D,2 D,2 | A,2 A,,2 | D,4- | D,4 |] %38
w: pen- tance|Are thy|gifts, thou|God of|grace,|Are thy|gifts, thou|God of|grace.||

